X: 060363
T: Fairhaired Child
S: Maureen Glynn Connolly
Z: B.Black
R: reel
M: 4/4
L: 1/8
K: D
A3 G FGAB | =c2 dc BGGB | ABAG FAdg | fdec Addc |
A3 D (3EFG AB | (3=cdc dc BGGB | ABAG FAde |\
fdec Adde ||
f2 df (3efe de | f2 df ec A2 | f2 df (3efe de |\
fdec Adde |
f2 df (3efe de | f2 df ecA^G | A2 (3Bcd ef (3gfe |\
afge d4 ||
